X: 51
T:Whistling Postman, The
M:6/8
L:1/8
C:Charlie Mulvihill
R:Double Jig
K:D
e[|:f3 edB|AFA BAF|DFA dfa|baf ede|!
~f3 edB|AFA BAF|DFA BAB|cBc d2e:|!
f3 afd|gbe gbe|~f3 afa|baf ede|!
f2f edB|AFA BAF|DFA BAB|cBc d2e:|]!
